X:1
T:Title
%%score ( 1 2 ) ( 3 4 )
L:1/8
Q:1/4=50
M:4/4
K:Bb
V:1 treble nm="Church Organ, Soprano"
V:2 treble 
V:3 bass nm="Church Organ, Bass"
V:4 bass 
V:1
 z4 z2 [B,D][CE] | [DF]2 [DB][Ec] [Fd]2 [=E_d][F=d] | B2- [EB-]2 [DB]2 [DF][FB] | %3
w: 1.~When~ the~|sun~ of~ your~ life~ has~ gone~|down,~ * * And~ the~|
 [Ec]2 [DB][Dd] [=Ec]2 [EA][EG] | F2 CD E2 [DF][EG] | [DF]2 [Fd][Ge] [Fd]2 [DB][DF] | %6
w: clouds~ in~ the~ west~ turn~ to~|gold~ (turn~ to~ gold),~ End less~|death~ will~ to~ you~ then~ have~|
 G2- [FG-]2 [EG]2 [EG][Ge] | [Fd]2 [DG][Dd] [=Ec]2 [_EF][Ec] | B2- [EB-]2 [DB]2 [Fd][Ec] | %9
w: come,~ * * If~ the~|light~ has~ gone~ out~ in~ your~|soul.~ * * * *|
 [DB]2 [B,D][CE] [DF]2 [Fd][=E_d] | d2- [Gd-][Bd-] [Fd]2 [DB][Fd] | %11
w: ||
 [=Ec]2 [EB][EG] [EA]2 [EA][EB] | [Fc]6 [Fd][Ge] | [Fd]2 [DB][Ec] [DB]2 [B,D][DF] | G6 z2 | %15
w: ||||
 [Fd]2 [DG][Dd] [=Ec]2 [_EF][Ec] | B6 z2 |] %17
w: ||
V:2
 x8 | x8 | D2 z2 z4 | x8 | x8 | x8 | E2 z2 z4 | x8 | D2 z2 z4 | x8 | F2 z2 z4 | x8 | x8 | x8 | %14
 E2 F2 E2 [EG][Ge] | x8 | D2 E2 D2 z2 |] %17
V:3
 z4 z2 [B,,F,][B,,F,] | [B,,B,]2 [B,,F,][B,,F,] [B,,B,]2 [B,,B,][B,,B,] | %2
 F,2 G,2 F,2 [B,,B,][D,B,] | [F,A,]2 [G,B,][G,B,] [C,G,]2 [C,C][C,B,] | %4
 A,2 A,B, C2 [B,,B,][B,,B,] | [B,,B,]2 [B,,B,][B,,B,] [B,,B,]2 [B,,F,][B,,B,] | %6
 [E,B,]2 [D,=B,]2 [C,C]2 [E,C][C,C] | [F,A,]2 [G,B,][G,B,] [C,G,]2 [F,A,][F,A,] | %8
 B,2 G,2 F,2 [B,,B,][B,,F,] | [B,,F,]2 [B,,F,][B,,F,] [B,,B,]2 [B,,B,][B,,B,] | %10
 B,2 B,F, B,2 [B,,F,][B,,B,] | [C,G,]2 [C,C][C,C] [C,C]2 [C,C][C,G,] | %12
 [F,A,]2 [A,C][G,B,] [F,A,]2 [B,,B,][B,,B,] | [B,,B,]2 [B,,F,][B,,F,] [B,,F,]2 [B,,F,][B,,B,] | %14
 [E,B,]2 [D,=B,]2 [C,C]2 [E,C][C,C] | [F,A,]2 [G,B,][G,B,] [C,G,]2 [F,A,][F,A,] | B,2 G,2 F,2 z2 |] %17
V:4
 x8 | x8 | B,,6 z2 | x8 | F,6 z2 | x8 | x8 | x8 | B,,6 z2 | x8 | B,,6 z2 | x8 | x8 | x8 | x8 | x8 | %16
 B,,6 z2 |] %17

